X:1
T:When the Fire Came Down
T:When the Fire Came Down
T:Arthur Willis Spooner
T:Arthur Willis Spooner, 1906
T:Public Domain Courtesy of the Cyber Hymnal™
T:Public Domain Courtesy of the Cyber Hymnal™
C:Arthur Willis Spooner
Z:Public Domain
Z:Courtesy of the Cyber Hymnal™
%%score ( 1 2 ) ( 3 4 )
L:1/8
Q:1/4=85
M:4/4
K:Eb
V:1 treble 
V:2 treble 
V:3 bass 
V:4 bass 
V:1
 E>[EF] | ([EG]<[EG]) [GB]>[GB] [Ac] [GB]2 (E/E/) | ([EG]<[EG]) [DF]>[DF] E2 [EG][GB] | %3
w: 1.~On the|mo- stood E- li- jah, th- e bra-|ve of God, And his faith rose|
w: 2.~On the|mo- knelt E- li- jah, th- e pr-|o- of God, And he cried, “O|
w: 3.~In the|up- room as- sem- bled, Knelt the lit-|tle of God, They were pray- ing,|
w: 4.~We are|wai- bless- èd Mas- ter, For an- o-|ther te- cost, And we’ve wait- ed|
 [Ac]>[Ac] [Ac][Ae] [GB][EG][EF]E | [DF]6 [AB]>[AB] | [GB]>[GB] [GB]>[Ge] ([Ge]<[GB]) [GB]>[GB] | %6
w: high as Heav- en in that hour; Tho’|the priests cried,|“Hear, O Ba- al!” Still prayers did not|
w: great Je- ho- vah, hear my prayer!” And|his cry was|heard in Heav- en, For an- swer soon|
w: “Bless- èd Mas- ter, send the power”; Then|the flame swept|down from glo- ry, And world has heard|
w: till our hearts have wear- y grown; Let|the wind blow|fresh from Hea- ven, Let prom- ised power|
 [Ac]>[Ac] [Ac]>[Ae] ([Ge]<[GB]) E[EF] | !>![EG]4 !>![DF]4 | [B,E]6 ||"^Refrain" E[DF] | %10
w: a- va- il, For no came down. But|no fire|came|down, But|
w: was giv- en, And the came down. Then|the fire|came|down, Then|
w: the sto- ry, How the came down. How|the fire|came|down, How|
w: be giv- en, Let the come down! Let|the fire|come|down, Let|
 !>![EG]4 !>![DF]4 | !>![CE]6 [EG][FA] | !>![GB]4 !>![FA]4 | !>![EG]6 [GB]>[GB] | %14
w: no fire|came down; Then|they cried,|“O hear us,|
w: the fire|came down; And|it lap-|ped up the|
w: the fire|came down; And|the Church|re- ceived her|
w: the fire|come down, Send|the power,|O Ho- ly|
 [Ge]>[Ge] [Ge]>[Ge] ([Ge]<[GB]) [GB][GB] | [Ac]>[Ac] [Ac]>[Ae] ([Ae]<[GB]) E[EF] | %16
w: Ba- Still their prayers did a- va- il,|For no fire came down. * * *|
w: wa- And the sto- nes the al- tar,|When the fire came down. * * *|
w: pow- It be- gan that y ho- ur,|When the fire came down. * * *|
w: Spir- Fall on us this y min- ute,|Let the fire come down. * * *|
 !>![EG]4 !>![DF]4 | !>![B,E]6 |] %18
w: ||
w: ||
w: ||
w: ||
V:2
 E3/2 x/ | x7 E/E/ | x4 E2 x2 | x7 E | x8 | x8 | x6 E x | x8 | x6 || E x | x8 | x8 | x8 | x8 | x8 | %15
 x6 E x | x8 | x6 |] %18
V:3
 [E,G,]>[E,A,] | ([E,B,]<[E,B,]) [E,E]>[E,E] [E,E] [E,E]2 ([E,G,]/[E,G,]/) | %2
 ([B,,B,]<[B,,B,]) [B,,A,]>[B,,A,] [E,G,]2 [E,B,][E,E] | %3
 [A,E]>[A,E] [A,E][A,C] [E,E][E,B,][E,A,][E,G,] | [B,,B,]6 [B,,B,]>[B,,B,] | %5
 [E,B,]>[E,B,] [E,B,]>[E,B,] ([E,B,]<[E,E]) [E,E]>[E,E] | %6
 [A,E]>[A,E] [A,E]>[A,C] ([E,B,]<[E,B,]) [E,G,][E,A,] | !>![B,,B,]4 !>![B,,A,]4 | !>![E,G,]6 || %9
 [E,G,][B,,B,] | [E,B,]2 [E,B,][E,B,] ([B,,B,]2 B,A,) | [E,G,]6 [E,B,][E,B,] | %12
 [E,E]2 [E,E][E,E] [D,B,]2 [D,B,]2 | [E,B,]6 [E,E]>[E,E] | %14
 [E,B,]>[E,B,] [E,B,]>[E,B,] ([E,B,]<[E,E]) [E,E][E,E] | %15
 [A,E]>[A,E] [A,E]>[A,C] ([E,B,]<[E,E]) [E,G,][E,A,] | [E,B,]2 [E,B,][B,,B,] ([B,,B,]2 B,A,) | %17
 [E,G,]6 |] %18
V:4
 x2 | x8 | x8 | x8 | x8 | x8 | x8 | x8 | x6 || x2 | x6 B,,2 | x8 | x8 | x8 | x8 | x8 | x6 B,,2 | %17
 x6 |] %18

